!!!!SEGMENT: pl-wtm--r-1229-1-m_moniuszko-stanislaw--przasniczka.krn
!!!cenid: 18xx:2852
!!!COM: Moniuszko, Stanisław
!!!COM-rismid: pe30008351
!!!CDT: 1819/05/05-1872/06/04
!!!CNT: Polish
!!!OTL: Prząśniczka
!!!PDT:
!!!AGN:
!!!SMS-siglum: PL-Wtm
!!!SMS-shelfmark: R 1229/1/M
!!!SMS-shelfwork: W
!!!SMS-variant:
!!!SMS-altvar:
!!!NIFC-rismid: 1001100455
!!!URL-scan: http://repozytorium.nifc.pl/skany/pl-wtm-nut--r1229m
!!!ONB-nifc: UWAGA: obsada: Coro S, Coro A, Coro T, Coro B, pf
**kern	**kern	**dynam	**kern	**text	**kern	**text	**text	**dynam
*part3	*part3	*part3	*part2	*part2	*part1	*part1	*part1	*part1
*staff4	*staff3	*	*staff2	*staff2	*staff1	*staff1	*staff1	*
*>[A,B,B,B,C]	*>[A,B,B,B,C]	*>[A,B,B,B,C]	*>[A,B,B,B,C]	*>[A,B,B,B,C]	*>[A,B,B,B,C]	*>[A,B,B,B,C]	*>[A,B,B,B,C]	*>[A,B,B,B,C]
*>A	*>A	*>A	*>A	*>A	*>A	*>A	*>A	*>A
*Iempty	*Iforte	*	*Itenor&Ibass	*	*Isoprn&Ialto	*	*	*
*	*I"Fortepian	*	*I"Teno Bas	*	*I"Sapro Alt	*	*	*
*clefF4	*clefG2	*	*clefF4	*	*clefG2	*	*	*
*k[f#c#g#]	*k[f#c#g#]	*	*k[f#c#g#]	*	*k[f#c#g#]	*	*	*
*f#:	*f#:	*	*f#:	*	*f#:	*	*	*
*M2/4	*M2/4	*	*M2/4	*	*M2/4	*	*	*
=1	=1	=1	=1	=1	=1	=1	=1	=1
!LO:TX:t=P:problem:mixed beam	!LO:TX:a:Bi:t=Presto.	!LO:DY:t=sempre p	!	!	!LO:TX:a:Bi:t=Presto	!	!	!
8FF#/L	(16ff#\LL	p	2r	.	2r	.	.	.
.	16gg#\	.	.	.	.	.	.	.
8AJ 8F#\	16ff#\	.	.	.	.	.	.	.
.	16cc#\JJ	.	.	.	.	.	.	.
8C#\L	16a\LL	.	.	.	.	.	.	.
.	16cc#\	.	.	.	.	.	.	.
8AJ 8F#\	16ff#\	.	.	.	.	.	.	.
.	16aa\JJ)	.	.	.	.	.	.	.
=2	=2	=2	=2	=2	=2	=2	=2	=2
*rep	*	*	*	*	*	*	*	*
!LO:TX:t=P:problem:mixed beam	!	!	!	!	!	!	!	!
8FF#/L	(16ff#\LL	.	2r	.	2r	.	.	.
.	16gg#\	.	.	.	.	.	.	.
8AJ 8F#\	16ff#\	.	.	.	.	.	.	.
.	16cc#\JJ	.	.	.	.	.	.	.
8C#\L	16a\LL	.	.	.	.	.	.	.
.	16cc#\	.	.	.	.	.	.	.
8AJ 8F#\	16ff#\	.	.	.	.	.	.	.
.	16aa\JJ)	.	.	.	.	.	.	.
*Xrep	*	*	*	*	*	*	*	*
=3!|:	=3!|:	=3!|:	=3!|:	=3!|:	=3!|:	=3!|:	=3!|:	=3!|:
*>B	*>B	*>B	*>B	*>B	*>B	*>B	*>B	*>B
*	*	*	*	*	*^	*	*	*
*	*	*	*	*	*	*	*above	*	*
!	!	!	!	!	!	!	!	!	!LO:DY:b:rj
8FF#\L	16ff#\LL	.	8.A 8.F#\	3) Gła-	8.f#/	8.f#\	1) U	2) Po-	p
.	16gg#\	.	.	.	.	.	.	.	.
8AJ 8F#\	16ff#\	.	.	.	.	.	.	.	.
.	16cc#\JJ	.	16A 16F#\	-dko	16f#/	16f#\	przą-	-szedł	.
8C#\L	16a\LL	.	8c# 8F#\	i-	8a/	8f#\	-śni-	do	.
.	16cc#\	.	.	.	.	.	.	.	.
8AJ 8F#\	16ff#\	.	8c# 8F#\	-dzie	8b/	8g#\	-czki	Kró-	.
.	16aa\JJ	.	.	.	.	.	.	.	.
=4	=4	=4	=4	=4	=4	=4	=4	=4	=4
*rep	*rep	*	*	*	*	*	*	*	*
8FF#\L	16ff#\LL	.	4c# 4F#\	przę-	4cc#/	4a\	sie-	-le-	.
.	16gg#\	.	.	.	.	.	.	.	.
8AJ 8F#\	16ff#\	.	.	.	.	.	.	.	.
.	16cc#\JJ	.	.	.	.	.	.	.	.
8C#\L	16a\LL	.	8A 8F#\	-dza	8f#/	8f#\	-dzą	-wca,	.
.	16cc#\	.	.	.	.	.	.	.	.
8AJ 8F#\	16ff#\	.	8A 8F#\	we-	8f#/	8c#\	jak	mło-	.
.	16aa\JJ	.	.	.	.	.	.	.	.
*Xrep	*Xrep	*	*	*	*	*	*	*	*
=5	=5	=5	=5	=5	=5	=5	=5	=5	=5
!LO:TX:t=P:problem:mixed beam	!	!	!	!	!	!	!	!	!
8FF#/L	(16ff#\LL	.	4B 4F#\	-so-	4dd/	4f#\	a-	-dzie-	.
.	16gg#\	.	.	.	.	.	.	.	.
8BJ 8F#\	16ff#\	.	.	.	.	.	.	.	.
.	16dd\JJ	.	.	.	.	.	.	.	.
8D\L	16b\LL	.	8B 8D\	-ło	8cc#/	8f#\	-nioł	-niec	.
.	16dd\	.	.	.	.	.	.	.	.
8BJ 8F#\	16ff#\	.	8B 8D\	dziew-	8b/	8f#\	dzie-	z wi-	.
.	16bb\JJ)	.	.	.	.	.	.	.	.
*	*	*	*	*	*v	*v	*	*	*
!!LO:LB:g=original
=6	=6	=6	=6	=6	=6	=6	=6	=6
!LO:TX:t=P:problem:mixed beam	!	!	!	!	!	!	!	!
8FF#/L	(16ff#\LL	.	4.A 4.F#\	-czy-	4.cc# 4.f#/	-we-	-ci-	.
.	16gg#\	.	.	.	.	.	.	.
8AJ 8F#\	16ff#\	.	.	.	.	.	.	.
.	16cc#\JJ	.	.	.	.	.	.	.
8C#\L	16a\LL	.	.	.	.	.	.	.
.	16cc#\	.	.	.	.	.	.	.
8AJ 8F#\	16ff#\	.	8A 8F#\	-nie!	8cc# 8f#/	-czki	-ną,	.
.	16aa\JJ)	.	.	.	.	.	.	.
=7	=7	=7	=7	=7	=7	=7	=7	=7
*^	*	*	*^	*	*^	*	*	*
(<8E#X/L	4E#\	(16gg#\LL	.	8.c#/	8.c# 8.E#X\	pa-	8.cc# 8.g#\	8.ryy	przę-	łza-	.
.	.	16aa\	.	.	.	.	.	.	.	.	.
8c#J 8G#/	.	16gg#\	.	.	.	.	.	.	.	.	.
.	.	16ee#X\JJ	.	16c#/	16c# 16E#\	-mię-	16g#/	16g#\	-dą	-mi-	.
8C#/L	4C#\	16cc#\LL	.	8B/	8B 8C#\	-ta-	8cc#/	8e#X\	so-	-się	.
.	.	16ee#\	.	.	.	.	.	.	.	.	.
8c#J 8B 8G#/	.	16gg#\	.	8B/	8E#X\	-ła	8g# 8c#/	8ryy	-bie	za-	.
.	.	16bb\JJ)	.	.	.	.	.	.	.	.	.
=8	=8	=8	=8	=8	=8	=8	=8	=8	=8	=8	=8
8F#/L	4F#\	(16aa\LL	.	4A/	4A 4F#\	trzy	4a/	4c#\	przę-	-le-	.
.	.	16bb\	.	.	.	.	.	.	.	.	.
8c#J 8A/	.	16aa\	.	.	.	.	.	.	.	.	.
.	.	16ff#\JJ	.	.	.	.	.	.	.	.	.
8C#/L)	4C#\	16cc#\LL	.	8A/	8A 8F#\	dni	8f#/	8c#\	-dą	-wał	.
.	.	16ff#\	.	.	.	.	.	.	.	.	.
8c#J 8A/	.	16aa\	.	8c#/	8F#\	o	8a/	8f#\	jed-	że-	.
.	.	16ccc#\JJ)	.	.	.	.	.	.	.	.	.
*	*	*	*	*v	*v	*	*	*	*	*	*
=9	=9	=9	=9	=9	=9	=9	=9	=9	=9	=9
(<8E#X/L	4E#\	(16gg#\LL	.	4c# 4E#X\	wier-	4cc#/	4g#\	-wa-	-gna-	.
.	.	16aa\	.	.	.	.	.	.	.	.
8c#J 8G#/	.	16gg#\	.	.	.	.	.	.	.	.
.	.	16ee#X\JJ	.	.	.	.	.	.	.	.
8C#/L	4C#\	16cc#\LL	.	8c# 8C#\	-nym	8g#/	8e#X\	-bne	-jąc	.
.	.	16ee#\	.	.	.	.	.	.	.	.
8c#J 8B 8G#/	.	16gg#\)	.	8B 8E#X\	chłop-	8g# 8c#/	8ryy	ni-	z dziew-	.
.	.	16bb\JJ	.	.	.	.	.	.	.	.
*	*	*	*	*	*	*v	*v	*	*	*
=10	=10	=10	=10	=10	=10	=10	=10	=10	=10
8F#/L	4F#\	(16aa\LL	.	4.A 4.F#\	-czy-	4.a 4.c#/	-te-	-czy-	.
.	.	16gg#\	.	.	.	.	.	.	.
8c#J 8A/	.	16ff#\	.	.	.	.	.	.	.
.	.	16gg#\JJ	.	.	.	.	.	.	.
8F#/L)	4F#\	16aa\LL	.	.	.	.	.	.	.
.	.	16ff#\	.	.	.	.	.	.	.
8c#J 8A/	.	16cc#\	.	8f# 8F#\	-nie.	8cc# 8a/	-czki	-ną	.
.	.	16ff#JJ 16a\)	.	.	.	.	.	.	.
*v	*v	*	*	*	*	*	*	*	*
!!LO:LB:g=original
=11	=11	=11	=11	=11	=11	=11	=11	=11
*	*	*	*	*	*^	*	*	*
*	*	*	*	*ij	*	*	*	*ij	*
!	!	!	!	!	!LO:TX:t=P:problem:dźwięki nieczytelne [przyjęto zgodnie z tt. nr 30-31]	!	!	!	!
8AA\L	(16ee\LL	>	8.e 8.A\	kręć	8.ee/	8.cc#\	kręć	kręć	.
.	16aa\	.	.	.	.	.	.	.	.
8c#J 8E\	16ee\	.	.	.	.	.	.	.	.
.	16dd\JJ	.	16e 16A\	się	16dd/	16b\	się,	się	.
*rep	*	*	*	*	*	*	*	*	*
8AA\L	16cc#\LL	.	8.e 8.A\	kręć	8.cc#/	8.a\	kręć	kręć	.
.	16ee\	.	.	.	.	.	.	.	.
8c#J 8E\	16cc#\	.	.	.	.	.	.	.	.
.	16b\JJ)	]]	16d 16A\	wrze-	16b/	16e\	wrze-	wrze-	.
*Xrep	*	*	*	*	*	*	*	*	*
=12	=12	=12	=12	=12	=12	=12	=12	=12	=12
*rep	*	*	*	*	*	*	*	*	*
8AA\L	(16a\LL	.	4.c# 4.A\	-cio-	4.a/	4.e\	-cio-	-cio-	.
.	16cc#\	.	.	.	.	.	.	.	.
8c#J 8E\	16ee\	.	.	.	.	.	.	.	.
.	16aa\JJ	.	.	.	.	.	.	.	.
*	*rep	*	*	*	*	*	*	*	*
8AA\L	16a\LL	.	.	.	.	.	.	.	.
.	16cc#\	.	.	.	.	.	.	.	.
8c#J 8E\	16ee\	.	8c# 8A\	-no!	8a/	8e\	-no!	-no!	.
.	16aa\JJ)	.	.	.	.	.	.	.	.
*Xrep	*Xrep	*	*	*	*	*	*	*	*
=13	=13	=13	=13	=13	=13	=13	=13	=13	=13
8AA/	(16b\LL	.	8.d 8.G#\	wić	8.b/	8.e\	wić	wić	.
.	16ee\	.	.	.	.	.	.	.	.
8dL 8G# 8E\	16bb\	.	.	.	.	.	.	.	.
.	16ee\JJ	.	16d 16G#\	się	16b/	16e\	się	się	.
8d 8G# 8E\	16bb\LL	.	8d 8B\	to-	8g#/	8e\	to-	to-	.
.	16ee\	.	.	.	.	.	.	.	.
8dJ 8G# 8E\	16bb\	.	8d 8G#\	-bie	8e/	8e\	-bie	-bie	.
.	16ee\JJ)	.	.	.	.	.	.	.	.
=14	=14	=14	=14	=14	=14	=14	=14	=14	=14
8AA\L	(16ccc#\LL	.	4.c# 4.A\	wić!	4.cc#/	4.e\	wić!	wić!	.
.	16bb\	.	.	.	.	.	.	.	.
8c#J 8A 8E\	16aa\	.	.	.	.	.	.	.	.
.	16bb\JJ	.	.	.	.	.	.	.	.
8AA\L	16ccc#\LL	.	.	.	.	.	.	.	.
.	16aa\	.	.	.	.	.	.	.	.
8c#J 8A\	16ee\	.	8r	.	8r	8ryy	.	.	.
.	16aa\JJ)	.	.	.	.	.	.	.	.
*	*	*	*	*	*v	*v	*	*	*
=15	=15	=15	=15	=15	=15	=15	=15	=15
8E#X\L	(16gg#\LL	.	8.c# 8.E#X\	ta	8.cc# 8.g#/	ta	ta	.
.	16aa\	.	.	.	.	.	.	.
8c#J 8B 8G#\	16gg#\	.	.	.	.	.	.	.
.	16ee#X\JJ	.	16B 16E#\	pa-	16dd 16g#/	pa-	pa-	.
8C#\L	16cc#\LL	.	8B 8E#\	-mię-	8cc# 8g#/	-mię-	-mię-	.
.	16ee#\	.	.	.	.	.	.	.
8c#J 8B 8G#\	16gg#\	.	8B 8C#\	-ta	8cc# 8e#X/	-ta	-ta	.
.	16bb\JJ)	.	.	.	.	.	.	.
!!LO:LB:g=original
=16	=16	=16	=16	=16	=16	=16	=16	=16
8F#\L	(16aa\LL	.	(4A (4F#\	le-	(4cc# [4f#/	le-	le-	.
.	16bb\	.	.	.	.	.	.	.
8c#J 8A\	16aa\	.	.	.	.	.	.	.
.	16gg#\JJ	.	.	.	.	.	.	.
8AA\L	16ff#\LL	.	8c# 8AA\))	-piej	8ff# 8f#\])	-piej	-piej	.
.	16gg#\	.	.	.	.	.	.	.
8AJ 8F# 8C#\	16ff#\	.	8r	.	8r	.	.	.
.	16ee\JJ)	.	.	.	.	.	.	.
=17	=17	=17	=17	=17	=17	=17	=17	=17
8BB\L	(16dd\LL	.	8.B 8.BB\	czy-	8.dd 8.f#/	czy-	czy-	.
.	16ee\	.	.	.	.	.	.	.
8G#J 8F# 8D\	16dd\	.	.	.	.	.	.	.
.	16cc#\JJ	.	16d 16BB\	-ja	16b 16f#/	-ja	-ja	.
8C#\L	16b\LL	.	8c# 8C#\	dłuż-	8g# 8e#X/	dłuż-	dłuż-	.
.	16a\	.	.	.	.	.	.	.
8BJ 8G# 8E#X\	16g#\	.	8B 8C#\	-sza	8cc# 8e#/	-sza	-sza	.
.	16a\JJ)	.	.	.	.	.	.	.
=18	=18	=18	=18	=18	=18	=18	=18	=18
*^	*^	*	*	*	*^	*	*	*
!LO:TX:t=P:problem:mixed beam	!	!	!	!	!	!	!	!	!	!	!
8FF#/L	4ryy	(<16f#/LL	4f#\	.	4.A 4.F#\	nić	4.f#/	4.f#\	nić	nić	.
.	.	16a/	.	.	.	.	.	.	.	.	.
8AJ 8F#\	.	16cc#/	.	.	.	.	.	.	.	.	.
.	.	16ff#/JJ)	.	.	.	.	.	.	.	.	.
8D/L	4D^\	(<16f#/LL	4f#\	.	.	.	.	.	.	.	.
.	.	16b/	.	.	.	.	.	.	.	.	.
8BJ 8F#/	.	16dd/	.	.	8r	.	8r	8ryy	.	.	.
.	.	16ff#/JJ)	.	.	.	.	.	.	.	.	.
*	*	*	*	*	*	*Xij	*	*	*	*Xij	*
*	*	*	*	*	*	*	*v	*v	*	*	*
=19	=19	=19	=19	=19	=19	=19	=19	=19	=19	=19
*rep	*rep	*	*	*	*	*	*	*	*	*
!LO:TX:t=P:problem:mixed beam	!	!	!	!	!LO:TX:a:t=3	!	!LO:TX:a:t=3	!	!	!
8FF#/L	4ryy	(<16f#/LL	4f#\	.	2r	.	2r	.	.	.
.	.	16a/	.	.	.	.	.	.	.	.
8AJ 8F#\	.	16cc#/	.	.	.	.	.	.	.	.
.	.	16ff#/JJ)	.	.	.	.	.	.	.	.
8D/L	4D^\	(<16f#/LL	4f#\	.	.	.	.	.	.	.
.	.	16b/	.	.	.	.	.	.	.	.
8BJ 8F#/	.	16dd/	.	.	.	.	.	.	.	.
.	.	16ff#/JJ)	.	.	.	.	.	.	.	.
*Xrep	*Xrep	*	*	*	*	*	*	*	*	*
*v	*v	*	*	*	*	*	*	*	*	*
=20	=20	=20	=20	=20	=20	=20	=20	=20	=20
8AA/L	16cc#\LL	4cc#/	.	2r	.	2r	.	.	.
.	16ff#\	.	.	.	.	.	.	.	.
8AJ 8F# 8C#/	16aa\	.	.	.	.	.	.	.	.
!	!LO:TX:b:B:t=2	!	!	!	!	!	!	!	!
.	16ccc#\JJ	.	.	.	.	.	.	.	.
8BB/L	(16b\LL	4b/	.	.	.	.	.	.	.
.	16dd\	.	.	.	.	.	.	.	.
8G#J 8F# 8D/	16gg#\	.	.	.	.	.	.	.	.
.	16bb\JJ)	.	.	.	.	.	.	.	.
=21	=21	=21	=21	=21	=21	=21	=21	=21	=21
8C#\L	16a\LL	4a/	.	2r	.	2r	.	.	.
!	!LO:TX:b:B:t=3	!	!	!	!	!	!	!	!
.	(16cc#\	.	.	.	.	.	.	.	.
8AJ 8F#\	16ff#\	.	.	.	.	.	.	.	.
.	16aa\JJ)	.	.	.	.	.	.	.	.
8C#\L	16g#\LL	4g#/	.	.	.	.	.	.	.
.	(16cc#\	.	.	.	.	.	.	.	.
8BJ 8G#\	16ee#X\	.	.	.	.	.	.	.	.
.	16gg#\JJ)	.	.	.	.	.	.	.	.
*	*v	*v	*	*	*	*	*	*	*
=22:|!	=22:|!	=22:|!	=22:|!	=22:|!	=22:|!	=22:|!	=22:|!	=22:|!
*>C	*>C	*>C	*>C	*>C	*>C	*>C	*>C	*>C
*	*	*	*	*	*^	*	*	*
*	*	*	*	*	*	*	*below	*	*
!LO:TX:t=P:problem:mixed beam	!	!	!	!	!	!	!	!	!
8FF#/L	(16ff#\LL	.	8.A 8.F#\	.	8.f#/	8.f#\	In-	.	.
.	16gg#\	.	.	.	.	.	.	.	.
8AJ 8F#\	16ff#\	.	.	.	.	.	.	.	.
.	16cc#\JJ	.	16A 16F#\	.	16f#/	16f#\	-ny	.	.
8C#\L	16a\LL	.	8c# 8F#\	.	8a/	8f#\	się	.	.
.	16cc#\	.	.	.	.	.	.	.	.
8AJ 8F#\	16ff#\	.	8c# 8F#\	.	8b/	8g#\	mło-	.	.
.	16aa\JJ)	.	.	.	.	.	.	.	.
=23	=23	=23	=23	=23	=23	=23	=23	=23	=23
*rep	*rep	*	*	*	*	*	*	*	*
!LO:TX:t=P:problem:mixed beam	!	!	!	!	!	!	!	!	!
8FF#/L	(16ff#\LL	.	4c# 4F#\	.	4cc#/	4a\	-dzie-	.	.
.	16gg#\	.	.	.	.	.	.	.	.
8AJ 8F#\	16ff#\	.	.	.	.	.	.	.	.
.	16cc#\JJ	.	.	.	.	.	.	.	.
8C#\L	16a\LL	.	8A 8F#\	.	8f#/	8f#\	-niec	.	.
.	16cc#\	.	.	.	.	.	.	.	.
8AJ 8F#\	16ff#\	.	8A 8F#\	.	8f#/	8c#\	pod-	.	.
.	16aa\JJ)	.	.	.	.	.	.	.	.
*Xrep	*Xrep	*	*	*	*	*	*	*	*
*	*	*	*	*	*v	*v	*	*	*
!!LO:PB:g=original
=24	=24	=24	=24	=24	=24	=24	=24	=24
*	*	*	*^	*	*	*	*	*
!LO:TX:t=P:problem:mixed beam	!	!	!	!	!	!	!	!	!
8FF#/L	(16ff#\LL	.	4B/	4F#\	.	4dd 4f#/	-su-	.	.
.	16gg#\	.	.	.	.	.	.	.	.
8BJ 8F#\	16ff#\	.	.	.	.	.	.	.	.
.	16dd\JJ	.	.	.	.	.	.	.	.
8D\L	16b\LL	.	8B/	8D\	.	8cc# 8f#/	-wa	.	.
.	16dd\	.	.	.	.	.	.	.	.
8BJ 8F#\	16ff#\	.	8B/	8D\	.	8b 8f#/	z u-	.	.
.	16bb\JJ)	.	.	.	.	.	.	.	.
*	*	*	*v	*v	*	*	*	*	*
=25	=25	=25	=25	=25	=25	=25	=25	=25
8FF#\L	(16ff#\LL	.	4.A 4.F#\	.	4.cc# 4.f#/	-bo-	.	.
.	16gg#\	.	.	.	.	.	.	.
8AJ 8F#\	16ff#\	.	.	.	.	.	.	.
.	16cc#\JJ	.	.	.	.	.	.	.
8C#\L	16a\LL	.	.	.	.	.	.	.
.	16cc#\	.	.	.	.	.	.	.
8AJ 8F#\	16ff#\	.	8A 8F#\	.	8cc# 8f#/	-cza,	.	.
.	16aa\JJ)	.	.	.	.	.	.	.
=26	=26	=26	=26	=26	=26	=26	=26	=26
*	*	*	*	*	*^	*	*	*
8E#X\L	(16gg#\LL	.	8.c# 8.E#X\	.	8.cc#/	8.g#\	i	.	.
.	16aa\	.	.	.	.	.	.	.	.
8c#J 8G#\	16gg#\	.	.	.	.	.	.	.	.
.	16ee#X\JJ	.	16c# 16E#\	.	16g#/	16g#\	in-	.	.
8C#\L	16cc#\LL	.	8B 8C#\	.	8cc#/	8e#X\	-ne-	.	.
.	16ee#\	.	.	.	.	.	.	.	.
8c#J 8B 8G#\	16gg#\	.	8B 8E#X\	.	8g#/	8c#\	-mu	.	.
.	16bb\JJ)	.	.	.	.	.	.	.	.
=27	=27	=27	=27	=27	=27	=27	=27	=27	=27
*^	*	*	*	*	*	*	*	*	*
8F#\L	(<4F#/	(16aa\LL	.	4A 4F#\	.	4a/	4c#\	ra-	.	.
.	.	16bb\	.	.	.	.	.	.	.	.
8c#J 8A\	.	16aa\	.	.	.	.	.	.	.	.
.	.	16ff#\JJ	.	.	.	.	.	.	.	.
8C#/L	4C#\	16cc#\LL	.	8A 8F#\	.	8f#/	8c#\	-da	.	.
.	.	16ff#\	.	.	.	.	.	.	.	.
8c#J 8A/	.	16aa\	.	8c# 8F#\	.	8a/	8f#\	dziew-	.	.
.	.	16ccc#\JJ)	.	.	.	.	.	.	.	.
=28	=28	=28	=28	=28	=28	=28	=28	=28	=28	=28
8E#X/L	4E#\	(16gg#\LL	.	4c# 4E#X\	.	4cc#/	4g#\	-czy-	.	.
.	.	16aa\	.	.	.	.	.	.	.	.
8c#J 8G#/	.	16gg#\	.	.	.	.	.	.	.	.
.	.	16ee#X\JJ	.	.	.	.	.	.	.	.
8C#/L	4C#\	16cc#\LL	.	8c# 8C#\	.	8g#/	8e#X\	-na	.	.
.	.	16ee#\	.	.	.	.	.	.	.	.
8c#J 8B 8G#/)	.	16gg#\	.	8B 8E#\	.	8g#/	8c#\	o-	.	.
.	.	16bb\JJ)	.	.	.	.	.	.	.	.
*v	*v	*	*	*	*	*v	*v	*	*	*
!!LO:LB:g=original
=29	=29	=29	=29	=29	=29	=29	=29	=29
8F#\L	(16aa\LL	.	4.A 4.F#\	.	4.a 4.c#/	-cho-	.	.
.	16gg#\	.	.	.	.	.	.	.
8c#J 8A\	16ff#\	.	.	.	.	.	.	.
.	16gg#\JJ	.	.	.	.	.	.	.
*rep	*	*	*	*	*	*	*	*
8F#\L	16aa\LL	.	.	.	.	.	.	.
.	16ff#\	.	.	.	.	.	.	.
8c#J 8A\	16cc#\	.	8f# 8F#\	.	8cc# 8a/	-cza.	.	.
.	16ff#JJ\)	.	.	.	.	.	.	.
*Xrep	*	*	*	*	*	*	*	*
=30	=30	=30	=30	=30	=30	=30	=30	=30
*	*	*	*	*	*^	*	*	*
!	!	!LO:DY:rj	!	!	!	!	!	!	!
8AA\L	(16ee\LL	f	8.e 8.A\	.	8.ee/	8.cc#\	Kręć	.	.
.	16aa\	.	.	.	.	.	.	.	.
8c#J 8E\	16ee\	.	.	.	.	.	.	.	.
.	16dd\JJ	.	16e 16A\	.	16dd/	16b\	się,	.	.
*rep	*	*	*	*	*	*	*	*	*
8AA\L	16cc#\LL	.	8.e 8.A\	.	8.cc#/	8.a\	kręć	.	.
.	16ee\	.	.	.	.	.	.	.	.
8c#J 8E\	16cc#\	.	.	.	.	.	.	.	.
.	16b\JJ)	.	16d 16A\	.	16b/	16e\	wrze-	.	.
*Xrep	*	*	*	*	*	*	*	*	*
=31	=31	=31	=31	=31	=31	=31	=31	=31	=31
8AA\L	(16a\LL	.	4.c# 4.A\	.	4.a/	4.e\	-cio-	.	.
.	16cc#\	.	.	.	.	.	.	.	.
8c#J 8E\	16ee\	.	.	.	.	.	.	.	.
.	16aa\JJ	.	.	.	.	.	.	.	.
*rep	*	*	*	*	*	*	*	*	*
8AA\L	16a\LL	.	.	.	.	.	.	.	.
.	16cc#\	.	.	.	.	.	.	.	.
8c#J 8E\	16ee\	.	8c# 8A\	.	8a/	8e\	-no!	.	.
.	16aa\JJ)	.	.	.	.	.	.	.	.
*Xrep	*	*	*	*	*	*	*	*	*
=32	=32	=32	=32	=32	=32	=32	=32	=32	=32
8AA/	(16b\LL	.	8.d 8.G#\	.	8.b/	8.e\	pry-	.	.
.	16ee\	.	.	.	.	.	.	.	.
8dL 8G# 8E\	16bb\	.	.	.	.	.	.	.	.
.	16ee\JJ	.	16d 16G#\	.	16b/	16e\	-sła	.	.
8d 8G# 8E\	16bb\LL	.	8d 8B\	.	8g#/	8e\	wą-	.	.
.	16ee\	.	.	.	.	.	.	.	.
8dJ 8G# 8E\	16bb\	.	8d 8G#\	.	8e/	8e\	-tła	.	.
.	16ee\JJ)	.	.	.	.	.	.	.	.
=33	=33	=33	=33	=33	=33	=33	=33	=33	=33
8c# 8E 8AA\	8ccc# 8ee 8a\	sf	8c# 8A\	.	8cc#/	8e\	nić!	.	.
8r	8r	.	8r	.	8r	8ryy	.	.	.
4r	4r	.	4r	.	4r	4ryy	.	.	.
!!LO:LB:g=original
=34	=34	=34	=34	=34	=34	=34	=34	=34	=34
!	!LO:TX:a:i:t=Lento	!	!	!	!LO:TX:a:i:t=Lento	!	!	!	!LO:DY:b:rj
4r	2r	.	4r	.	8.cc#/	4r	Wsty-	.	p
.	.	.	.	.	16dd/	.	-dem	.	.
!LO:S:s=2:note:problem:note-level slur	!	!LO:DY:b=2	!	!	!	!	!	!	!
(4B (4G#X (4E\	.	p	8.B 8.E#X\	.	8.cc#/	8.g#\	dzie-	.	.
.	.	.	16B 16E#\	.	16b#X/	16g#\	-wcze	.	.
=35	=35	=35	=35	=35	=35	=35	=35	=35	=35
!	!LO:TX:a:Bi:t=Presto	!	!	!	!LO:TX:a:Bi:t=Presto	!	!	!	!
8A) 8F#\))	16aa\LL	.	(4A (4F#\	.	(4cc#/	4f#\	pło-	.	.
!	!	!LO:DY:rj	!	!	!	!	!	!	!
.	16bb\	ff	.	.	.	.	.	.	.
8r	16aa\	.	.	.	.	.	.	.	.
.	16gg#\JJ	.	.	.	.	.	.	.	.
!	!	!LO:DY:b=2	!	!	!	!	!	!	!
8F# 8C# 8AA\	(16ff#\LL	sf	8c# 8AA\))	.	8ff#/)	8f#\	-nie,	.	.
.	16gg#\	.	.	.	.	.	.	.	.
8r	16ff#\	.	8r	.	8r	8ryy	.	.	.
.	16ee\JJ	.	.	.	.	.	.	.	.
=36	=36	=36	=36	=36	=36	=36	=36	=36	=36
8G# 8F# 8BB\	16dd\LL	.	8.B 8.BB\	.	8.dd/	8.f#\	wstydź	.	.
.	16ee\	.	.	.	.	.	.	.	.
8r	16dd\	.	.	.	.	.	.	.	.
.	16cc#\JJ	.	16B 16D\	.	16b/	16f#\	się	.	.
8G# 8E#X 8C#\	16b\LL	.	8c# 8C#\	.	8g#/	8e#X\	dziew-	.	.
.	16a\	.	.	.	.	.	.	.	.
8r	16g#\	.	8B 8C#\	.	8cc#/	8e#\	-czę	.	.
.	16a\JJ)	.	.	.	.	.	.	.	.
=37	=37	=37	=37	=37	=37	=37	=37	=37	=37
*^	*	*	*	*	*	*	*	*	*
[2A/	(4.FF#\	(16f#\LL	>	4.A 4.F#\	.	4.f#/	4.f#\	wstydź!	.	.
.	.	16a\	.	.	.	.	.	.	.	.
.	.	16cc#\	.	.	.	.	.	.	.	.
.	.	16b\JJ	.	.	.	.	.	.	.	.
.	.	16a\LL	.	.	.	.	.	.	.	.
.	.	16cc#\	.	.	.	.	.	.	.	.
.	8C#\)	16ff#\	.	8r	.	8r	8ryy	.	.	.
.	.	16gg#\JJ)	]	.	.	.	.	.	.	.
*	*	*	*	*	*	*v	*v	*	*	*
=38	=38	=38	=38	=38	=38	=38	=38	=38	=38
!LO:TX:a:t=P:problem:brak początku ligatury	!	!	!LO:HP:t=dim e rall	!	!	!	!	!	!
2A/_	(4.FF#\	(16aa\LL	>	2r	.	2r	.	.	.
.	.	16gg#\	.	.	.	.	.	.	.
.	.	16ff#\	.	.	.	.	.	.	.
.	.	16cc#\JJ	.	.	.	.	.	.	.
.	.	16a\LL	.	.	.	.	.	.	.
.	.	16cc#\	.	.	.	.	.	.	.
.	8C#\)	16ff#\	.	.	.	.	.	.	.
.	.	16gg#\JJ)	.	.	.	.	.	.	.
!!LO:LB:g=original
=39	=39	=39	=39	=39	=39	=39	=39	=39	=39
2A/_	(4.FF#\	(16aa\LL	.	2r	.	2r	.	.	.
.	.	16gg#\	.	.	.	.	.	.	.
.	.	16ff#\	.	.	.	.	.	.	.
.	.	16cc#\JJ	.	.	.	.	.	.	.
.	.	16a\LL	.	.	.	.	.	.	.
.	.	16cc#\	.	.	.	.	.	.	.
.	8C#\)	16ff#\	.	.	.	.	.	.	.
.	.	16gg#\JJ)	.	.	.	.	.	.	.
=40	=40	=40	=40	=40	=40	=40	=40	=40	=40
*	*	*rep	*	*	*	*	*	*	*
2A/_	(4.FF#\	(16aa\LL	.	2r	.	2r	.	.	.
.	.	16gg#\	.	.	.	.	.	.	.
.	.	16ff#\	.	.	.	.	.	.	.
.	.	16cc#\JJ	.	.	.	.	.	.	.
.	.	16a\LL	.	.	.	.	.	.	.
.	.	16cc#\	.	.	.	.	.	.	.
.	8C#\)	16ff#\	.	.	.	.	.	.	.
.	.	16gg#\JJ)	.	.	.	.	.	.	.
*	*	*Xrep	*	*	*	*	*	*	*
*v	*v	*	*	*	*	*	*	*	*
=41	=41	=41	=41	=41	=41	=41	=41	=41
!	!LO:TX:a:i:t=a Tempo	!	!	!	!	!	!	!
8A] 8FF#\	8aa\	.	2r	.	2r	.	.	.
8r	8r	.	.	.	.	.	.	.
4r	4r	.	.	.	.	.	.	.
=42	=42	=42	=42	=42	=42	=42	=42	=42
*clefG2	*	*	*	*	*	*	*	*
8b 8e#X 8c#\	8ccc# 8gg# 8cc#\	sf	2r	.	2r	.	.	.
8r	8r	.	.	.	.	.	.	.
4r	4r	.	.	.	.	.	.	.
=43	=43	=43	=43	=43	=43	=43	=43	=43
8a 8f# 8F#/	8fff# 8ff# 8cc#\	.	2r	.	2r	.	.	.
8r	8r	.	.	.	.	.	.	.
4r	4r	.	.	.	.	.	.	.
==	==	==	==	==	==	==	==	==
*-	*-	*-	*-	*-	*-	*-	*-	*-
!!!system-decoration: {(s1,s2)}{(p3)}
!!!RDF**kern: > = above
!!!RDF**kern: < = below
!!!AIN: 1 alto 1 bass 1 empty 1 soprn 1 tenor
!!!ENC: Andrzej Kubiczek
!!!END: 2021-08-12
!!!ENC: Anastazja Marusiak
!!!END: 2021-07-28
